X:1
T:Title
%%score { 1 | 2 }
L:1/8
Q:1/4=72
M:6/8
K:A
V:1 treble nm="Grand Piano"
V:2 bass 
V:1
 [CE][CF][CG] [CA][DB][^D=c] | [Ec]2 [Ec] [Ec]3 | cdc BFG | [DF]2 [CE] [CE]3 | %4
w: Charles~H.~Gabriel * * * * *||||
 [B,E][^DF][EG] [FA][EG][DF] | G2 A B3 | B3 .F3 | B3 .[Ge]3 | e>dc [Ec]>[EB][EA] | %9
w: |||||
 [FA][EG][DF] [CE]3 | e>dc [Ec][EB][EA] | B2 c .B3 | c>cc ee[Ae] | [Ad]2 A .[Ac]3 | A3 .F3 | %15
w: ||||||
 B3 [CA]3 |] %16
w: |
V:2
 [A,,A,][A,,A,][A,,A,] [A,,E,][A,,E,][A,,F,] | [A,,A,]2 [A,,A,] [A,,A,]3 | %2
 [E,A,E][E,B,E][E,A,E] [E,G,D][E,A,D][E,B,D] | [A,,A,]2 [A,,A,] [A,,A,]3 | %4
 [B,,G,][B,,B,][B,,B,] [B,,B,][B,,B,][B,,B,] | [E,B,E]2 [E,F,E] [E,G,E]3 | [F,A,^D]3 .[A,B,D]3 | %7
 [E,G,E]3 .[E,D]3 | [A,CA]>[A,B,E][K:bass][A,E] [A,,A,]>[B,,G,][C,A,] | [D,D]2 [D,A,] [A,,A,]3 | %10
 [A,CA]>[A,B,E][K:bass][A,E] [A,,A,][B,,G,][C,A,] | [E,G,E]2 [E,A,E] .[E,G,E]3 | %12
 [A,E]>[A,E][A,E] [G,B,E][G,B,E][=G,C] | [F,D]2 [^E,D] .[=E,E]3 | [F,B,^D]3 .[A,B,D]3 | %15
 [E,G,D]3 [A,,E,]3 |] %16

